static/assets/img/icons/theme/home/trash.svg

<svg height="24" viewBox="0 0 24 24" width="24" xmlns="http://www.w3.org/2000/svg"><g fill="none" fill-rule="evenodd"><path d="m0 0h24v24h-24z" opacity="0"/><g fill="#000"><path d="m6 8h12l-.893465 11.6150447c-.060115.7814958-.7117772 1.3849553-1.4955817 1.3849553h-7.22190659c-.78380446 0-1.43546667-.6034595-1.49558173-1.3849553zm2 2 .45438229 4.0894406 7.09740621-.055537.4482115-4.0339036z" fill-rule="nonzero"/><path d="m14 4.5v-1c0-.27614237-.2238576-.5-.5-.5h-3c-.2761424 0-.5.22385763-.5.5v1h-4.5c-.27614237 0-.5.22385763-.5.5v.5c0 .27614237.22385763.5.5.5h13c.2761424 0 .5-.22385763.5-.5v-.5c0-.27614237-.2238576-.5-.5-.5z" opacity=".3"/></g></g></svg>

<svg width="24px" height="24px" viewBox="0 0 24 24" version="1.1" xmlns="http://www.w3.org/2000/svg" xmlns:xlink="http://www.w3.org/1999/xlink">
    <title>Icon For Trash</title>
    <g stroke="none" stroke-width="1" fill="none" fill-rule="evenodd">
        <rect opacity="0" x="0" y="0" width="24" height="24"></rect>
        <path d="M6,8 L18,8 L17.106535,19.6150447 C17.04642,20.3965405 16.3947578,21 15.6109533,21 L8.38904671,21 C7.60524225,21 6.95358004,20.3965405 6.89346498,19.6150447 L6,8 Z M8,10 L8.45438229,14.0894406 L15.5517885,14.0339036 L16,10 L8,10 Z" fill="#000000" fill-rule="nonzero"></path>
        <path d="M14,4.5 L14,3.5 C14,3.22385763 13.7761424,3 13.5,3 L10.5,3 C10.2238576,3 10,3.22385763 10,3.5 L10,4.5 L5.5,4.5 C5.22385763,4.5 5,4.72385763 5,5 L5,5.5 C5,5.77614237 5.22385763,6 5.5,6 L18.5,6 C18.7761424,6 19,5.77614237 19,5.5 L19,5 C19,4.72385763 18.7761424,4.5 18.5,4.5 L14,4.5 Z" fill="#000000" opacity="0.3"></path>
    </g>
</svg>
